www/assets/icons/5mp.svg

<svg xmlns="http://www.w3.org/2000/svg" width="24" height="24" viewBox="0 0 24 24" fill='currentColor'><path d="M19 3H5c-1.1 0-2 .9-2 2v14c0 1.1.9 2 2 2h14c1.1 0 2-.9 2-2V5c0-1.1-.9-2-2-2m-7 15.5h-1.5V14h-1v3H8v-3H7v4.5H5.5v-5c0-.55.45-1 1-1H11c.55 0 1 .45 1 1zm3.5 0H14v-6h3.5c.55 0 1 .45 1 1V16c0 .55-.45 1-1 1h-2zM14.5 7h-3v1h2c.55 0 1 .45 1 1v1.5c0 .55-.45 1-1 1H10V10h3V9h-3V5.5h4.5zm1 7H17v1.5h-1.5z"/></svg>

<svg width="24" height="24" viewBox="0 0 24 24" xmlns="http://www.w3.org/2000/svg" fill='currentColor'><path d="M19 3H5C3.9 3 3 3.9 3 5V19C3 20.1 3.9 21 5 21H19C20.1 21 21 20.1 21 19V5C21 3.9 20.1 3 19 3ZM12 18.5H10.5V14H9.5V17H8V14H7V18.5H5.5V13.5C5.5 12.95 5.95 12.5 6.5 12.5H11C11.55 12.5 12 12.95 12 13.5V18.5ZM15.5 18.5H14V12.5H17.5C18.05 12.5 18.5 12.95 18.5 13.5V16C18.5 16.55 18.05 17 17.5 17H15.5V18.5ZM14.5 7H11.5V8H13.5C14.05 8 14.5 8.45 14.5 9V10.5C14.5 11.05 14.05 11.5 13.5 11.5H10V10H13V9H10V5.5H14.5V7ZM15.5 14H17V15.5H15.5V14Z"/></svg>
